img/auto-parts.svg

<svg width="80" height="80" viewBox="0 0 80 80" fill="none" xmlns="http://www.w3.org/2000/svg">
<path d="M64.8233 28.86C63.9973 27.1957 62.7218 25.7958 61.1411 24.8191C59.5605 23.8423 57.738 23.3276 55.88 23.3334H24.1199C22.2618 23.3273 20.4391 23.8418 18.8584 24.8186C17.2778 25.7954 16.0023 27.1954 15.1766 28.86L7.55661 44.1C4.78443 49.6601 3.33881 55.7871 3.33328 62V73.3334H9.99995V80H26.6666V73.3334H53.3333V80H70V73.3334H76.6666V62C76.6595 55.7905 75.214 49.6671 72.4433 44.11L64.8233 28.86ZM21.1566 31.86C21.4278 31.3044 21.8491 30.8357 22.3728 30.507C22.8964 30.1783 23.5017 30.0027 24.1199 30H55.88C56.4994 29.9976 57.1071 30.1691 57.6339 30.495C58.1607 30.8209 58.5855 31.288 58.86 31.8434L66.2733 46.6667H13.7266L21.1566 31.86ZM70 66.6667H9.99995V62C10.0011 59.0732 10.3878 56.1592 11.1499 53.3334H16.6666V56.6667C16.6666 57.5507 17.0178 58.3986 17.6429 59.0237C18.268 59.6488 19.1159 60 19.9999 60C20.884 60 21.7318 59.6488 22.357 59.0237C22.9821 58.3986 23.3333 57.5507 23.3333 56.6667V53.3334H56.6666V56.6667C56.6666 57.5507 57.0178 58.3986 57.6429 59.0237C58.268 59.6488 59.1159 60 60 60C60.884 60 61.7319 59.6488 62.357 59.0237C62.9821 58.3986 63.3333 57.5507 63.3333 56.6667V53.3334H68.85C69.6121 56.1592 69.9988 59.0732 70 62V66.6667ZM70 13.3334H79.3866C78.6761 15.2563 77.3934 16.9154 75.7113 18.0872C74.0291 19.2589 72.0283 19.8871 69.9783 19.8871C67.9282 19.8871 65.9274 19.2589 64.2453 18.0872C62.5632 16.9154 61.2805 15.2563 60.57 13.3334H19.4299C18.7194 15.2563 17.4367 16.9154 15.7546 18.0872C14.0725 19.2589 12.0717 19.8871 10.0216 19.8871C7.97158 19.8871 5.97077 19.2589 4.28863 18.0872C2.60648 16.9154 1.32379 15.2563 0.613281 13.3334H9.99995V6.66669H0.613281C1.32379 4.74371 2.60648 3.08463 4.28863 1.91286C5.97077 0.741096 7.97158 0.112915 10.0216 0.112915C12.0717 0.112915 14.0725 0.741096 15.7546 1.91286C17.4367 3.08463 18.7194 4.74371 19.4299 6.66669H60.57C61.2805 4.74371 62.5632 3.08463 64.2453 1.91286C65.9274 0.741096 67.9282 0.112915 69.9783 0.112915C72.0283 0.112915 74.0291 0.741096 75.7113 1.91286C77.3934 3.08463 78.6761 4.74371 79.3866 6.66669H70V13.3334Z" fill="#EFBE4C"/>
</svg>

<svg width="80" height="80" fill="none" xmlns="http://www.w3.org/2000/svg"><path d="M64.823 28.86a9.95 9.95 0 00-8.943-5.527H24.12a9.947 9.947 0 00-8.943 5.527L7.557 44.1A40.197 40.197 0 003.333 62v11.333H10V80h16.667v-6.667h26.666V80H70v-6.667h6.667V62a40.197 40.197 0 00-4.224-17.89l-7.62-15.25zm-43.666 3A3.314 3.314 0 0124.12 30h31.76a3.31 3.31 0 012.98 1.843l7.413 14.824H13.727l7.43-14.807zM70 66.667H10V62a33.34 33.34 0 011.15-8.667h5.517v3.334a3.333 3.333 0 006.666 0v-3.334h33.334v3.334a3.333 3.333 0 006.666 0v-3.334h5.517A33.336 33.336 0 0170 62v4.667zm0-53.334h9.387a10.03 10.03 0 01-18.817 0H19.43a10.03 10.03 0 01-18.817 0H10V6.667H.613a10.03 10.03 0 0118.817 0h41.14a10.03 10.03 0 0118.817 0H70v6.666z" fill="#EFBE4C"/></svg>
